brand/icon.svg

<?xml version="1.0" encoding="UTF-8" standalone="no"?>
<svg
   xmlns:dc="http://purl.org/dc/elements/1.1/"
   xmlns:cc="http://creativecommons.org/ns#"
   xmlns:rdf="http://www.w3.org/1999/02/22-rdf-syntax-ns#"
   xmlns:svg="http://www.w3.org/2000/svg"
   xmlns="http://www.w3.org/2000/svg"
   xmlns:sodipodi="http://sodipodi.sourceforge.net/DTD/sodipodi-0.dtd"
   xmlns:inkscape="http://www.inkscape.org/namespaces/inkscape"
   inkscape:version="1.0 (4035a4fb49, 2020-05-01)"
   sodipodi:docname="icon.svg"
   id="svg34"
   version="1.1"
   width="128px"
   viewBox="0 0 128 128"
   height="128px">
  <metadata
     id="metadata40">
    <rdf:RDF>
      <cc:Work
         rdf:about="">
        <dc:format>image/svg+xml</dc:format>
        <dc:type
           rdf:resource="http://purl.org/dc/dcmitype/StillImage" />
      </cc:Work>
    </rdf:RDF>
  </metadata>
  <defs
     id="defs38">
    <filter
       id="filter954"
       inkscape:label="Drop Shadow"
       style="color-interpolation-filters:sRGB;">
      <feFlood
         id="feFlood944"
         result="flood"
         flood-color="rgb(0,0,0)"
         flood-opacity="0.498039" />
      <feComposite
         id="feComposite946"
         result="composite1"
         operator="in"
         in2="SourceGraphic"
         in="flood" />
      <feGaussianBlur
         id="feGaussianBlur948"
         result="blur"
         stdDeviation="2"
         in="composite1" />
      <feOffset
         id="feOffset950"
         result="offset"
         dy="0"
         dx="0" />
      <feComposite
         id="feComposite952"
         result="composite2"
         operator="over"
         in2="offset"
         in="SourceGraphic" />
    </filter>
  </defs>
  <sodipodi:namedview
     inkscape:current-layer="svg34"
     inkscape:window-maximized="1"
     inkscape:window-y="27"
     inkscape:window-x="0"
     inkscape:cy="100.98318"
     inkscape:cx="63.44305"
     inkscape:zoom="3.34375"
     showgrid="false"
     id="namedview36"
     inkscape:window-height="1016"
     inkscape:window-width="1920"
     inkscape:pageshadow="2"
     inkscape:pageopacity="0"
     guidetolerance="10"
     gridtolerance="10"
     objecttolerance="10"
     borderopacity="1"
     bordercolor="#666666"
     pagecolor="#ffffff" />
  <linearGradient
     y2="-449.394012"
     y1="-449.394012"
     x2="536.595886"
     x1="88.595886"
     gradientUnits="userSpaceOnUse"
     gradientTransform="matrix(0.196428 0 0 0.342105 6.59729 273.740051)"
     id="a">
    <stop
       id="stop2"
       stop-color="#d5d3cf"
       offset="0" />
    <stop
       id="stop4"
       stop-color="#e3e2df"
       offset="0.0384615" />
    <stop
       id="stop6"
       stop-color="#c0bfbc"
       offset="0.0769231" />
    <stop
       id="stop8"
       stop-color="#c0bfbc"
       offset="0.923077" />
    <stop
       id="stop10"
       stop-color="#e3e2df"
       offset="0.961538" />
    <stop
       id="stop12"
       stop-color="#d5d3cf"
       offset="1" />
  </linearGradient>
  <linearGradient
     y2="85.856194"
     y1="36.714844"
     x2="67.861115"
     x1="68"
     gradientUnits="userSpaceOnUse"
     id="b">
    <stop
       id="stop15"
       stop-opacity="0.010512"
       stop-color="#26a269"
       offset="0" />
    <stop
       id="stop17"
       stop-opacity="0.996078"
       stop-color="#25d069"
       offset="0.308743" />
    <stop
       id="stop19"
       stop-opacity="0.996078"
       stop-color="#25d069"
       offset="0.660183" />
    <stop
       id="stop21"
       stop-opacity="0"
       stop-color="#26a269"
       offset="1" />
  </linearGradient>
  <g
     style="filter:url(#filter954)"
     id="g930">
    <path
       d="m 32 16 h 72 c 4.417969 0 8 3.582031 8 8 v 88 c 0 4.417969 -3.582031 8 -8 8 h -72 c -4.417969 0 -8 -3.582031 -8 -8 v -88 c 0 -4.417969 3.582031 -8 8 -8 z m 0 0"
       fill="url(#a)"
       id="path24" />
    <path
       d="m 32 8 h 72 c 4.417969 0 8 3.582031 8 8 v 92 c 0 4.417969 -3.582031 8 -8 8 h -72 c -4.417969 0 -8 -3.582031 -8 -8 v -92 c 0 -4.417969 3.582031 -8 8 -8 z m 0 0"
       fill="#f6f5f4"
       id="path26" />
    <path
       d="m 84.457031 18 v 9.839844 h -5.679687 l -0.304688 -4.132813 h -6.796875 v 26.015625 l 3.957031 0.761719 v 4.4375 h -15.316406 v -4.4375 l 3.957032 -0.761719 v -26.015625 h -6.773438 l -0.300781 4.132813 h -5.65625 v -9.839844 z m 0 0"
       fill="#666666"
       id="path28" />
    <path
       d="m 92.253906 73.542969 l -3.042968 0.378906 l -7.480469 32.078125 h -6.871094 l -6.769531 -24.367188 h -0.152344 l -6.769531 24.367188 h -6.875 l -7.53125 -32.078125 l -3.015625 -0.378906 v -4.464844 h 13.589844 v 4.464844 l -3.371094 0.582031 l 4.234375 20.234375 l 0.152343 0.027344 l 6.921876 -25.308594 h 5.453124 l 6.972657 25.308594 l 0.152343 -0.027344 l 4.210938 -20.234375 l -3.375 -0.582031 v -4.464844 h 13.566406 z m 0 0"
       fill="#666666"
       id="path30" />
    <path
       d="m 64.269531 36.714844 v 22.09375 h -11.445312 l 15.265625 22.824218 l 15.085937 -22.824218 h -11.5 v -22.09375 z m 0 0"
       fill="url(#b)"
       id="path32" />
  </g>
</svg>

<?xml version="1.0" encoding="UTF-8" standalone="no"?>
<svg
   xmlns:dc="http://purl.org/dc/elements/1.1/"
   xmlns:cc="http://creativecommons.org/ns#"
   xmlns:rdf="http://www.w3.org/1999/02/22-rdf-syntax-ns#"
   xmlns:svg="http://www.w3.org/2000/svg"
   xmlns="http://www.w3.org/2000/svg"
   xmlns:sodipodi="http://sodipodi.sourceforge.net/DTD/sodipodi-0.dtd"
   xmlns:inkscape="http://www.inkscape.org/namespaces/inkscape"
   height="128px"
   viewBox="0 0 128 128"
   width="128px"
   version="1.1"
   id="svg34"
   sodipodi:docname="icon.svg"
   inkscape:version="1.0 (4035a4fb49, 2020-05-01)">
  <metadata
     id="metadata40">
    <rdf:RDF>
      <cc:Work
         rdf:about="">
        <dc:format>image/svg+xml</dc:format>
        <dc:type
           rdf:resource="http://purl.org/dc/dcmitype/StillImage" />
      </cc:Work>
    </rdf:RDF>
  </metadata>
  <defs
     id="defs38">
    <filter
       style="color-interpolation-filters:sRGB;"
       inkscape:label="Drop Shadow"
       id="filter954">
      <feFlood
         flood-opacity="0.498039"
         flood-color="rgb(0,0,0)"
         result="flood"
         id="feFlood944" />
      <feComposite
         in="flood"
         in2="SourceGraphic"
         operator="in"
         result="composite1"
         id="feComposite946" />
      <feGaussianBlur
         in="composite1"
         stdDeviation="2"
         result="blur"
         id="feGaussianBlur948" />
      <feOffset
         dx="0"
         dy="0"
         result="offset"
         id="feOffset950" />
      <feComposite
         in="SourceGraphic"
         in2="offset"
         operator="over"
         result="composite2"
         id="feComposite952" />
    </filter>
  </defs>
  <sodipodi:namedview
     inkscape:document-rotation="0"
     pagecolor="#ffffff"
     bordercolor="#666666"
     borderopacity="1"
     objecttolerance="10"
     gridtolerance="10"
     guidetolerance="10"
     inkscape:pageopacity="0"
     inkscape:pageshadow="2"
     inkscape:window-width="1920"
     inkscape:window-height="1016"
     id="namedview36"
     showgrid="false"
     inkscape:zoom="3.34375"
     inkscape:cx="63.44305"
     inkscape:cy="100.98318"
     inkscape:window-x="0"
     inkscape:window-y="27"
     inkscape:window-maximized="1"
     inkscape:current-layer="svg34" />
  <linearGradient
     id="a"
     gradientTransform="matrix(0.196428,0,0,0.342105,6.59729,273.74005)"
     gradientUnits="userSpaceOnUse"
     x1="88.595886"
     x2="536.595886"
     y1="-449.394012"
     y2="-449.394012">
    <stop
       offset="0"
       stop-color="#d5d3cf"
       id="stop2" />
    <stop
       offset="0.0384615"
       stop-color="#e3e2df"
       id="stop4" />
    <stop
       offset="0.0769231"
       stop-color="#c0bfbc"
       id="stop6" />
    <stop
       offset="0.923077"
       stop-color="#c0bfbc"
       id="stop8" />
    <stop
       offset="0.961538"
       stop-color="#e3e2df"
       id="stop10" />
    <stop
       offset="1"
       stop-color="#d5d3cf"
       id="stop12" />
  </linearGradient>
  <linearGradient
     id="b"
     gradientUnits="userSpaceOnUse"
     x1="68"
     x2="67.861115"
     y1="36.714844"
     y2="85.856194">
    <stop
       offset="0"
       stop-color="#26a269"
       stop-opacity="0.010512"
       id="stop15" />
    <stop
       offset="0.308743"
       stop-color="#25d069"
       stop-opacity="0.996078"
       id="stop17" />
    <stop
       offset="0.660183"
       stop-color="#25d069"
       stop-opacity="0.996078"
       id="stop19" />
    <stop
       offset="1"
       stop-color="#26a269"
       stop-opacity="0"
       id="stop21" />
  </linearGradient>
  <g
     transform="translate(-4.0000029)"
     id="g930"
     style="filter:url(#filter954)">
    <path
       style="fill:url(#a)"
       id="path24"
       fill="url(#a)"
       d="m 32,16 h 72 c 4.41797,0 8,3.582031 8,8 v 88 c 0,4.41797 -3.58203,8 -8,8 H 32 c -4.417969,0 -8,-3.58203 -8,-8 V 24 c 0,-4.417969 3.582031,-8 8,-8 z m 0,0" />
    <path
       id="path26"
       fill="#f6f5f4"
       d="m 32,8 h 72 c 4.41797,0 8,3.582031 8,8 v 92 c 0,4.41797 -3.58203,8 -8,8 H 32 c -4.417969,0 -8,-3.58203 -8,-8 V 16 c 0,-4.417969 3.582031,-8 8,-8 z m 0,0" />
    <path
       id="path28"
       fill="#666666"
       d="m 84.457031,18 v 9.839844 h -5.679687 l -0.304688,-4.132813 h -6.796875 v 26.015625 l 3.957031,0.761719 v 4.4375 H 60.316406 v -4.4375 l 3.957032,-0.761719 V 23.707031 H 57.5 l -0.300781,4.132813 h -5.65625 V 18 Z m 0,0" />
    <path
       id="path30"
       fill="#666666"
       d="M 92.253906,73.542969 89.210938,73.921875 81.730469,106 H 74.859375 L 68.089844,81.632812 H 67.9375 L 61.167969,106 h -6.875 l -7.53125,-32.078125 -3.015625,-0.378906 v -4.464844 h 13.589844 v 4.464844 l -3.371094,0.582031 4.234375,20.234375 0.152343,0.02734 6.921876,-25.308594 h 5.453124 l 6.972657,25.308594 0.152343,-0.02734 L 82.0625,74.125 78.6875,73.542969 v -4.464844 h 13.566406 z m 0,0" />
    <path
       style="fill:url(#b)"
       id="path32"
       fill="url(#b)"
       d="m 64.269531,36.714844 v 22.09375 H 52.824219 L 68.089844,81.632812 83.175781,58.808594 h -11.5 v -22.09375 z m 0,0" />
  </g>
</svg>
